X: 208
T: O'Donnell Abu
C: M.J. McAnn ca. 1843
M: C|
Z: Transcribed to abc by Mary Lou Knack
R: march
K: G
"G"G4 B3c| d4 d2d2| b4 "C"g3e| "G"d4 c2B2|
"Am"A4 A3B| "D7"c4 B2A2| "G"G4 B3c| d6 d2|
"G"G4 B3c| d4 d2d2| b4 "C"g3e| "G"d4 c2B2|
"Am"A4 a3g| "D7"f2d2 e2f2| "G"g4 g3g| g8|]
\
"G"b4 b3a| g2e2 d4| "C"g2 g4 e2| "G"d2B2 G4|
"C"c4 c3c| "G"B2 d4 B2| "Am"A4 A3B| "D7"A8|
"G"G4 B3c| d2e2 d4| "C"b2 g4 e2| "G"d2d2 c2B2|
"Am"A4 a3g| "D7"f2d2 e2f2| "G"g4 g3g| g8|]

